img/svg/coupon.svg

<svg width="43" height="43" viewBox="0 0 43 43" fill="none" xmlns="http://www.w3.org/2000/svg">
<g clip-path="url(#clip0)">
<path d="M1.13276 28.446C1.52396 28.446 1.84121 28.7636 1.84121 29.1548V29.8636C1.84121 30.2548 1.52396 30.5721 1.13276 30.5721C0.741222 30.5721 0.423973 30.2548 0.423973 29.8636V29.1548C0.423973 28.7636 0.741222 28.446 1.13276 28.446Z" fill="white"/>
<path d="M29.5444 33.4065C29.1531 33.4065 28.8359 33.0892 28.8359 32.698C28.8359 32.3065 29.1531 31.9893 29.5444 31.9893H30.9772C31.3687 31.9893 31.686 32.3065 31.686 32.698C31.686 33.0892 31.3687 33.4065 30.9772 33.4065H29.5444Z" fill="white"/>
<path d="M1.13276 3.3606C1.52396 3.3606 1.84121 3.67785 1.84121 4.06938V5.50219C1.84121 5.8934 1.52396 6.21065 1.13276 6.21065C0.741222 6.21065 0.423973 5.8934 0.423973 5.50219V4.06938C0.423973 3.67785 0.741222 3.3606 1.13276 3.3606Z" fill="white"/>
<path d="M34.5616 33.4065C34.1701 33.4065 33.8528 33.0892 33.8528 32.698C33.8528 32.3065 34.1701 31.9893 34.5616 31.9893H35.9973C36.3885 31.9893 36.7058 32.3065 36.7058 32.698C36.7058 33.0892 36.3885 33.4065 35.9973 33.4065H34.5616Z" fill="white"/>
<path d="M42.233 14.7775C41.8418 14.7775 41.5245 14.4602 41.5245 14.0687V12.6352C41.5245 12.244 41.8418 11.9268 42.233 11.9268C42.6245 11.9268 42.9418 12.244 42.9418 12.6352V14.0687C42.9418 14.4602 42.6245 14.7775 42.233 14.7775Z" fill="white"/>
<path d="M42.233 24.8124C41.8418 24.8124 41.5245 24.4951 41.5245 24.1039V22.6701C41.5245 22.2789 41.8418 21.9617 42.233 21.9617C42.6245 21.9617 42.9418 22.2789 42.9418 22.6701V24.1039C42.9418 24.4951 42.6245 24.8124 42.233 24.8124Z" fill="white"/>
<path d="M42.233 29.8295C41.8418 29.8295 41.5245 29.5123 41.5245 29.1208V27.6873C41.5245 27.2958 41.8418 26.9785 42.233 26.9785C42.6245 26.9785 42.9418 27.2958 42.9418 27.6873V29.1208C42.9418 29.5123 42.6245 29.8295 42.233 29.8295Z" fill="white"/>
<path d="M42.233 19.7954C41.8418 19.7954 41.5245 19.4781 41.5245 19.0866V17.6531C41.5245 17.2616 41.8418 16.9443 42.233 16.9443C42.6245 16.9443 42.9418 17.2616 42.9418 17.6531V19.0866C42.9418 19.2747 42.8672 19.4548 42.7342 19.5878C42.6012 19.7208 42.4211 19.7954 42.233 19.7954Z" fill="white"/>
<path d="M42.233 9.76013C41.8418 9.76013 41.5245 9.44288 41.5245 9.05167V7.61821C41.5245 7.22667 41.8418 6.90942 42.233 6.90942C42.6245 6.90942 42.9418 7.22667 42.9418 7.61821V9.05167C42.9418 9.44288 42.6245 9.76013 42.233 9.76013Z" fill="white"/>
<path d="M1.13276 8.37695C1.52396 8.37695 1.84121 8.6942 1.84121 9.08574V10.5179C1.84121 10.9091 1.52396 11.2264 1.13276 11.2264C0.741222 11.2264 0.423973 10.9091 0.423973 10.5179V9.08574C0.423973 8.6942 0.741222 8.37695 1.13276 8.37695Z" fill="white"/>
<path d="M19.1572 0.101074C19.5487 0.101074 19.8659 0.418323 19.8659 0.809857C19.8659 1.20107 19.5487 1.51831 19.1572 1.51831H17.7237C17.3325 1.51831 17.0149 1.20107 17.0149 0.809857C17.0149 0.418323 17.3325 0.101074 17.7237 0.101074H19.1572Z" fill="white"/>
<path d="M39.2262 0.101074C39.6178 0.101074 39.935 0.418323 39.935 0.809857C39.935 1.20107 39.6178 1.51831 39.2262 1.51831H37.7928C37.4016 1.51831 37.0843 1.20107 37.0843 0.809857C37.0843 0.418323 37.4016 0.101074 37.7928 0.101074H39.2262Z" fill="white"/>
<path d="M24.1744 0.101074C24.5656 0.101074 24.8829 0.418323 24.8829 0.809857C24.8829 1.20107 24.5656 1.51831 24.1744 1.51831H22.741C22.3494 1.51831 22.0322 1.20107 22.0322 0.809857C22.0322 0.418323 22.3494 0.101074 22.741 0.101074H24.1744Z" fill="white"/>
<path d="M1.13276 18.4119C1.52396 18.4119 1.84121 18.7294 1.84121 19.1206V20.5541C1.84121 20.9456 1.52396 21.2629 1.13276 21.2629C0.741222 21.2629 0.423973 20.9456 0.423973 20.5541V19.1206C0.423973 18.7294 0.741222 18.4119 1.13276 18.4119Z" fill="white"/>
<path d="M29.1943 0.101074C29.5858 0.101074 29.9031 0.418323 29.9031 0.809857C29.9031 1.20107 29.5858 1.51831 29.1943 1.51831H27.7602C27.3687 1.51831 27.0514 1.20107 27.0514 0.809857C27.0514 0.418323 27.3687 0.101074 27.7602 0.101074H29.1943Z" fill="white"/>
<path d="M3.96717 1.51808C3.64181 1.51743 3.32067 1.59172 3.02872 1.73574C2.80133 1.84831 2.53111 1.83111 2.32026 1.69001C2.10909 1.5489 1.98971 1.30593 2.00691 1.05259C2.02442 0.799567 2.17559 0.574767 2.40395 0.463828C2.88988 0.223782 3.42512 0.0995426 3.96717 0.10084H4.10892C4.50013 0.10084 4.81738 0.418089 4.81738 0.809623C4.81738 1.20083 4.50013 1.51808 4.10892 1.51808H3.96717Z" fill="white"/>
<path d="M7.68888 1.51831C7.29734 1.51831 6.98009 1.20107 6.98009 0.809857C6.98009 0.418323 7.29734 0.101074 7.68888 0.101074H9.12234C9.51387 0.101074 9.83112 0.418323 9.83112 0.809857C9.83112 1.20107 9.51387 1.51831 9.12234 1.51831H7.68888Z" fill="white"/>
<path d="M1.13276 13.3943C1.52396 13.3943 1.84121 13.7115 1.84121 14.1027V15.5365C1.84121 15.9277 1.52396 16.245 1.13276 16.245C0.741222 16.245 0.423973 15.9277 0.423973 15.5365V14.1027C0.423973 13.7115 0.741222 13.3943 1.13276 13.3943Z" fill="white"/>
<path d="M41.5245 31.8703C41.7357 32.1992 41.6406 32.6371 41.312 32.849C40.8057 33.1727 40.2257 33.3625 39.6262 33.4004H39.5814C39.3281 33.4082 39.09 33.2804 38.9567 33.065C38.8233 32.8496 38.8149 32.5794 38.9346 32.3562C39.0546 32.133 39.2843 31.991 39.5373 31.9828C39.8967 31.9601 40.2445 31.8466 40.5481 31.6526C40.8777 31.444 41.3146 31.541 41.5245 31.8703Z" fill="white"/>
<path d="M1.13276 23.4292C1.52396 23.4292 1.84121 23.7464 1.84121 24.1377V25.5714C1.84121 25.9627 1.52396 26.2799 1.13276 26.2799C0.741222 26.2799 0.423973 25.9627 0.423973 25.5714V24.1377C0.423973 23.7464 0.741222 23.4292 1.13276 23.4292Z" fill="white"/>
<path d="M42.233 4.74309C41.8418 4.74309 41.5246 4.42584 41.5246 4.0343V3.64407C41.5246 3.38229 41.4765 3.12311 41.3828 2.87852C41.242 2.51358 41.4237 2.10324 41.7889 1.96245C42.1539 1.82167 42.5642 2.00333 42.705 2.36858C42.862 2.77536 42.9421 3.20777 42.9418 3.64407V4.0343C42.9418 4.42584 42.6245 4.74309 42.233 4.74309Z" fill="white"/>
<path d="M34.2093 0.101074C34.6005 0.101074 34.9181 0.418323 34.9181 0.809857C34.9181 1.20107 34.6005 1.51831 34.2093 1.51831H32.7749C32.3836 1.51831 32.0664 1.20107 32.0664 0.809857C32.0664 0.418323 32.3836 0.101074 32.7749 0.101074H34.2093Z" fill="white"/>
<path d="M12.7068 1.51831C12.3152 1.51831 11.998 1.20107 11.998 0.809857C11.998 0.418323 12.3152 0.101074 12.7068 0.101074H14.1396C14.5308 0.101074 14.8481 0.418323 14.8481 0.809857C14.8481 1.20107 14.5308 1.51831 14.1396 1.51831H12.7068Z" fill="white"/>
<path d="M25.2262 33.4065C24.8346 33.4065 24.5174 33.0892 24.5174 32.698C24.5174 32.3065 24.8346 31.9893 25.2262 31.9893H25.9346C26.3261 31.9893 26.6434 32.3065 26.6434 32.698C26.6434 33.0892 26.3261 33.4065 25.9346 33.4065H25.2262Z" fill="white"/>
<path d="M34.0838 10.7303C32.7142 10.7303 31.6035 9.61991 31.6035 8.25003C31.6035 6.88047 32.7142 5.76978 34.0838 5.76978C35.4537 5.76978 36.564 6.88047 36.564 8.25003C36.564 9.61991 35.4537 10.7303 34.0838 10.7303ZM34.0838 7.18702C33.497 7.18702 33.0211 7.66321 33.0211 8.25003C33.0211 8.83716 33.497 9.31304 34.0838 9.31304C34.6709 9.31304 35.1468 8.83716 35.1468 8.25003C35.1468 7.66321 34.6709 7.18702 34.0838 7.18702Z" fill="white"/>
<path d="M27.7064 12.8564C29.076 12.8564 30.1863 13.9668 30.1863 15.3367C30.1863 16.7063 29.076 17.8166 27.7064 17.8166C26.3365 17.8166 25.2262 16.7063 25.2262 15.3367C25.2262 13.9668 26.3365 12.8564 27.7064 12.8564ZM27.7064 16.3994C28.2932 16.3994 28.7691 15.9235 28.7691 15.3367C28.7691 14.7496 28.2932 14.2737 27.7064 14.2737C27.1193 14.2737 26.6434 14.7496 26.6434 15.3367C26.6434 15.9235 27.1193 16.3994 27.7064 16.3994Z" fill="white"/>
<path d="M36.3396 17.6262C36.2021 17.7543 36.0191 17.8231 35.8313 17.8163C35.6435 17.8098 35.4657 17.729 35.3376 17.5915L25.4166 6.96199C25.2372 6.77807 25.1713 6.51142 25.2443 6.26489C25.3176 6.01868 25.5184 5.83118 25.7695 5.77539C26.0202 5.71927 26.2817 5.80361 26.4526 5.99532L36.3737 16.6248C36.6406 16.9109 36.6254 17.3589 36.3396 17.6262Z" fill="white"/>
<path d="M33.0211 24.9031H31.6035C31.2123 24.9031 30.8951 24.5858 30.8951 24.1943C30.8951 23.8031 31.2123 23.4858 31.6035 23.4858H33.0211C33.4123 23.4858 33.7296 23.8031 33.7296 24.1943C33.7296 24.5858 33.4123 24.9031 33.0211 24.9031Z" fill="white"/>
<path d="M28.7691 24.9031H27.3518C26.9606 24.9031 26.6434 24.5858 26.6434 24.1943C26.6434 23.8031 26.9606 23.4858 27.3518 23.4858H28.7691C29.1606 23.4858 29.4779 23.8031 29.4779 24.1943C29.4779 24.5858 29.1606 24.9031 28.7691 24.9031Z" fill="white"/>
<path d="M24.5173 24.9031H23.1001C22.7089 24.9031 22.3916 24.5858 22.3916 24.1943C22.3916 23.8031 22.7089 23.4858 23.1001 23.4858H24.5173C24.9088 23.4858 25.2261 23.8031 25.2261 24.1943C25.2261 24.5858 24.9088 24.9031 24.5173 24.9031Z" fill="white"/>
<path d="M20.9741 7.18701H19.5568C19.1656 7.18701 18.8484 6.86977 18.8484 6.47856C18.8484 6.08702 19.1656 5.76978 19.5568 5.76978H20.9741C21.3656 5.76978 21.6828 6.08702 21.6828 6.47856C21.6828 6.86977 21.3656 7.18701 20.9741 7.18701Z" fill="white"/>
<path d="M16.7223 7.18701H6.80163C6.4101 7.18701 6.09285 6.86977 6.09285 6.47856C6.09285 6.08702 6.4101 5.76978 6.80163 5.76978H16.7223C17.1138 5.76978 17.4311 6.08702 17.4311 6.47856C17.4311 6.86977 17.1138 7.18701 16.7223 7.18701Z" fill="white"/>
<path d="M20.9741 12.8564H19.5568C19.1656 12.8564 18.8484 12.5392 18.8484 12.1477C18.8484 11.7565 19.1656 11.4392 19.5568 11.4392H20.9741C21.3656 11.4392 21.6828 11.7565 21.6828 12.1477C21.6828 12.5392 21.3656 12.8564 20.9741 12.8564Z" fill="white"/>
<path d="M6.80163 11.4392H16.7223C17.1138 11.4392 17.4311 11.7565 17.4311 12.1477C17.4311 12.5392 17.1138 12.8564 16.7223 12.8564H6.80163C6.4101 12.8564 6.09285 12.5392 6.09285 12.1477C6.09285 11.7565 6.4101 11.4392 6.80163 11.4392Z" fill="white"/>
<path d="M20.9741 10.022H13.8879C13.4967 10.022 13.1794 9.70473 13.1794 9.31319C13.1794 8.92199 13.4967 8.60474 13.8879 8.60474H20.9741C21.3656 8.60474 21.6828 8.92199 21.6828 9.31319C21.6828 9.70473 21.3656 10.022 20.9741 10.022Z" fill="white"/>
<path d="M6.80167 8.60474H11.0534C11.4446 8.60474 11.7622 8.92199 11.7622 9.31319C11.7622 9.70473 11.4446 10.022 11.0534 10.022H6.80167C6.41013 10.022 6.09288 9.70473 6.09288 9.31319C6.09288 8.92199 6.41013 8.60474 6.80167 8.60474Z" fill="white"/>
<path d="M18.8483 35.5325C20.0223 35.5325 20.974 36.4842 20.974 37.6582C20.974 38.8324 20.0223 39.7842 18.8483 39.7842C17.674 39.7842 16.7223 38.8324 16.7223 37.6582C16.7223 36.4842 17.674 35.5325 18.8483 35.5325ZM18.8483 38.3669C19.2395 38.3669 19.5568 38.0497 19.5568 37.6582C19.5568 37.267 19.2395 36.9497 18.8483 36.9497C18.4568 36.9497 18.1395 37.267 18.1395 37.6582C18.1395 38.0497 18.4568 38.3669 18.8483 38.3669Z" fill="white"/>
<path d="M5.38439 32.698C6.3264 32.698 7.24863 32.9686 8.04175 33.4775L9.65946 30.6755L9.6001 30.572H3.96715C3.57561 30.572 3.25837 30.2547 3.25837 29.8635V3.64409C3.25837 3.25255 3.57561 2.9353 3.96715 2.9353H39.3985C39.79 2.9353 40.1073 3.25255 40.1073 3.64409V29.8635C40.1073 30.2547 39.79 30.572 39.3985 30.572H14.6326L14.5716 30.6784L16.1903 33.4775C18.0721 32.2796 20.5222 32.4852 22.1782 33.9803C23.8338 35.4754 24.288 37.8918 23.2879 39.8861C22.2875 41.8801 20.0794 42.9613 17.8907 42.5282C15.7024 42.0952 14.0724 40.2543 13.907 38.0296L12.1164 34.9301L10.3254 38.0296C10.124 40.7142 7.81825 42.7478 5.12975 42.6125C2.44124 42.4773 0.351219 40.2221 0.420315 37.531C0.489407 34.8399 2.69231 32.6951 5.38439 32.698ZM9.97898 35.7969L18.1282 21.6871C18.5444 20.9656 18.3815 20.0496 17.7428 19.5153L9.13364 34.4199C9.48884 34.8296 9.7743 35.2947 9.97898 35.7969ZM19.7193 21.3598C19.6596 21.7234 19.5364 22.0734 19.3557 22.3946L17.0902 26.3203L35.8555 26.2778L35.8131 21.3598H19.7193ZM10.4779 29.2582L11.2963 27.841L6.49119 19.5173C5.85247 20.0512 5.68963 20.9666 6.10485 21.688L10.4779 29.2582ZM12.0554 26.3203H12.1751L15.0394 21.3598H9.19235L12.0554 26.3203ZM8.78135 29.1548L4.87608 22.3929C4.7979 22.2499 4.73108 22.1013 4.67561 21.9479V29.1548H8.78135ZM38.69 29.1548V4.35254H4.67561V19.7301C4.92441 19.0521 5.40288 18.4828 6.02765 18.1208L6.3822 17.9151C6.54472 17.8207 6.7387 17.7948 6.92035 17.8434C7.10233 17.8918 7.25739 18.0108 7.35146 18.1736L8.37392 19.9425H15.8578L16.8813 18.1711C16.9753 18.0079 17.1304 17.8892 17.312 17.8405C17.494 17.7922 17.6877 17.8178 17.8505 17.9122L18.2048 18.1156C18.9012 18.5159 19.4154 19.1708 19.6385 19.9425H35.8131C36.6188 19.9432 37.2718 20.5965 37.2728 21.4023V26.2778C37.2718 27.0836 36.6188 27.7369 35.8131 27.7375H16.2695L15.451 29.1548H38.69ZM18.8483 41.2015C20.805 41.2015 22.3916 39.6152 22.3916 37.6582C22.3916 35.7015 20.805 34.1153 18.8483 34.1153C16.8913 34.1153 15.3051 35.7015 15.3051 37.6582C15.3073 39.6143 16.8923 41.1992 18.8483 41.2015ZM14.2534 35.7969C14.4584 35.2951 14.7439 34.8302 15.0988 34.4205L13.7526 32.094L12.9335 33.5113L14.2534 35.7969ZM5.38439 41.2015C7.34108 41.2015 8.92733 39.6152 8.92733 37.6582C8.92733 35.7015 7.34108 34.1153 5.38439 34.1153C3.42737 34.1153 1.84112 35.7015 1.84112 37.6582C1.8434 39.6143 3.42834 41.1992 5.38439 41.2015Z" fill="white"/>
<path d="M5.38438 35.5325C6.55834 35.5325 7.51008 36.4842 7.51008 37.6582C7.51008 38.8324 6.55834 39.7842 5.38438 39.7842C4.21011 39.7842 3.25836 38.8324 3.25836 37.6582C3.25836 36.4842 4.21011 35.5325 5.38438 35.5325ZM5.38438 38.3669C5.77559 38.3669 6.09284 38.0497 6.09284 37.6582C6.09284 37.267 5.77559 36.9497 5.38438 36.9497C4.99285 36.9497 4.6756 37.267 4.6756 37.6582C4.6756 38.0497 4.99285 38.3669 5.38438 38.3669Z" fill="white"/>
</g>
<defs>
<clipPath id="clip0">
<rect width="42.5231" height="42.5231" fill="white" transform="matrix(-1 0 0 1 42.9418 0.0957031)"/>
</clipPath>
</defs>
</svg>

<svg width="43" height="43" viewBox="0 0 43 43" fill="none" xmlns="http://www.w3.org/2000/svg"><g clip-path="url(#a)" fill="#fff"><path d="M1.133 28.446c.391 0 .708.318.708.709v.709a.709.709 0 0 1-1.417 0v-.71c0-.39.317-.708.709-.708zm28.411 4.961a.709.709 0 0 1 0-1.418h1.433a.709.709 0 1 1 0 1.418h-1.433zM1.133 3.36a.71.71 0 0 1 .708.71v1.432a.709.709 0 0 1-1.417 0V4.07c0-.391.317-.708.709-.708zm33.429 30.047a.709.709 0 1 1 0-1.418h1.435a.709.709 0 0 1 0 1.418h-1.435zm7.671-18.63a.709.709 0 0 1-.708-.708v-1.434a.709.709 0 0 1 1.417 0v1.434a.709.709 0 0 1-.709.708zm0 10.035a.709.709 0 0 1-.708-.708V22.67a.709.709 0 0 1 1.417 0v1.434a.709.709 0 0 1-.709.708zm0 5.018a.709.709 0 0 1-.708-.71v-1.433a.709.709 0 1 1 1.417 0v1.434a.709.709 0 0 1-.709.709zm0-10.035a.709.709 0 0 1-.708-.708v-1.434a.709.709 0 1 1 1.417 0v1.434a.708.708 0 0 1-.709.708zm0-10.035a.709.709 0 0 1-.708-.708V7.618a.709.709 0 1 1 1.417 0v1.434a.709.709 0 0 1-.709.708zm-41.1-1.383c.391 0 .708.317.708.709v1.432a.709.709 0 0 1-1.417 0V9.086c0-.392.317-.709.709-.709zM19.157.101a.709.709 0 1 1 0 1.417h-1.433a.709.709 0 0 1 0-1.417h1.433zm20.069 0a.709.709 0 1 1 0 1.417h-1.433a.709.709 0 0 1 0-1.417h1.433zm-15.052 0a.709.709 0 0 1 0 1.417h-1.433a.709.709 0 1 1 0-1.417h1.433zM1.133 18.412c.391 0 .708.317.708.709v1.433a.709.709 0 1 1-1.417 0v-1.433a.71.71 0 0 1 .709-.71zM29.194.101a.709.709 0 1 1 0 1.417H27.76a.709.709 0 1 1 0-1.417h1.434zM3.967 1.518a2.12 2.12 0 0 0-.938.218.709.709 0 1 1-.625-1.272A3.511 3.511 0 0 1 3.967.1h.142a.709.709 0 0 1 0 1.417h-.142zm3.722 0a.709.709 0 1 1 0-1.417h1.433a.709.709 0 1 1 0 1.417H7.69zM1.133 13.394c.391 0 .708.317.708.709v1.434a.709.709 0 0 1-1.417 0v-1.434c0-.392.317-.709.709-.709zM41.525 31.87a.709.709 0 0 1-.213.979 3.545 3.545 0 0 1-1.686.551h-.045a.709.709 0 0 1-.044-1.417c.36-.023.708-.136 1.011-.33a.709.709 0 0 1 .977.217zM1.133 23.43c.391 0 .708.316.708.708v1.433a.709.709 0 0 1-1.417 0v-1.433c0-.392.317-.709.709-.709zm41.1-18.687a.709.709 0 0 1-.708-.709v-.39c0-.262-.048-.52-.142-.765a.709.709 0 1 1 1.322-.51c.157.406.237.839.237 1.275v.39a.709.709 0 0 1-.709.71zM34.21.101a.709.709 0 0 1 0 1.417h-1.435a.709.709 0 0 1 0-1.417h1.434zM12.707 1.518a.709.709 0 1 1 0-1.417h1.433a.709.709 0 0 1 0 1.417h-1.433zm12.519 31.889a.709.709 0 1 1 0-1.418h.709a.709.709 0 1 1 0 1.418h-.709zm8.858-22.677a2.48 2.48 0 1 1 0-4.96 2.48 2.48 0 0 1 0 4.96zm0-3.543a1.063 1.063 0 1 0 0 2.126 1.063 1.063 0 0 0 0-2.126zm-6.378 5.669a2.48 2.48 0 1 1 0 4.96 2.48 2.48 0 0 1 0-4.96zm0 3.543a1.063 1.063 0 1 0 0-2.125 1.063 1.063 0 0 0 0 2.125zm8.634 1.227a.709.709 0 0 1-1.002-.035L25.417 6.963a.71.71 0 1 1 1.036-.967l9.92 10.63a.709.709 0 0 1-.033 1.001zm-3.319 7.277h-1.418a.709.709 0 0 1 0-1.417h1.418a.709.709 0 0 1 0 1.417zm-4.251 0h-1.418a.709.709 0 0 1 0-1.417h1.417a.709.709 0 1 1 0 1.417zm-4.253 0H23.1a.709.709 0 0 1 0-1.417h1.417a.709.709 0 1 1 0 1.417zM20.974 7.187h-1.417a.708.708 0 0 1 0-1.417h1.417a.709.709 0 1 1 0 1.417zm-4.252 0h-9.92a.709.709 0 1 1 0-1.417h9.92a.709.709 0 1 1 0 1.417zm4.252 5.669h-1.417a.709.709 0 0 1 0-1.417h1.417a.709.709 0 1 1 0 1.417zM6.802 11.44h9.92a.709.709 0 1 1 0 1.416h-9.92a.709.709 0 1 1 0-1.417zm14.172-1.418h-7.086a.709.709 0 0 1 0-1.417h7.086a.709.709 0 1 1 0 1.417zM6.802 8.605h4.251a.709.709 0 0 1 0 1.417H6.802a.709.709 0 1 1 0-1.417zm12.046 26.927a2.126 2.126 0 1 1 0 4.252 2.126 2.126 0 0 1 0-4.252zm0 2.835a.709.709 0 1 0 0-1.417.709.709 0 0 0 0 1.417z"/><path d="M5.384 32.698c.942 0 1.865.27 2.658.78l1.617-2.803-.059-.103H3.967a.709.709 0 0 1-.709-.709V3.644a.71.71 0 0 1 .71-.709h35.43a.71.71 0 0 1 .71.71v26.218a.709.709 0 0 1-.71.709H14.633l-.061.106 1.618 2.8a4.96 4.96 0 1 1-2.283 4.552l-1.79-3.1-1.792 3.1a4.96 4.96 0 1 1-4.94-5.332zm4.595 3.099l8.15-14.11a1.715 1.715 0 0 0-.386-2.172L9.133 34.42c.356.41.641.875.846 1.377zm9.74-14.437c-.06.363-.183.713-.363 1.035L17.09 26.32l18.765-.042-.042-4.918H19.72zm-9.241 7.898l.818-1.417-4.805-8.324a1.714 1.714 0 0 0-.386 2.171l4.373 7.57zm1.577-2.938h.12l2.864-4.96H9.192l2.863 4.96zm-3.274 2.835l-3.905-6.762a3.184 3.184 0 0 1-.2-.445v7.207H8.78zm29.909 0V4.353H4.676V19.73a3.09 3.09 0 0 1 1.352-1.61l.354-.205a.708.708 0 0 1 .97.259l1.022 1.768h7.484l1.023-1.77a.709.709 0 0 1 .97-.26l.354.204a3.1 3.1 0 0 1 1.434 1.826h16.174a1.462 1.462 0 0 1 1.46 1.46v4.876a1.461 1.461 0 0 1-1.46 1.46H16.27l-.818 1.417H38.69zM18.848 41.202a3.543 3.543 0 1 0 0-7.087 3.543 3.543 0 0 0 0 7.087zm-4.595-5.405c.205-.502.49-.967.846-1.377l-1.346-2.326-.82 1.417 1.32 2.286zm-8.869 5.405a3.543 3.543 0 1 0 0-7.087 3.543 3.543 0 0 0 0 7.087z"/><path d="M5.384 35.532a2.126 2.126 0 1 1 0 4.252 2.126 2.126 0 0 1 0-4.252zm0 2.835a.709.709 0 1 0 0-1.417.709.709 0 0 0 0 1.417z"/></g><defs><clipPath id="a"><path fill="#fff" transform="matrix(-1 0 0 1 42.942 .096)" d="M0 0h42.523v42.523H0z"/></clipPath></defs></svg>
